X: 14655
T: Gan Ainm
R: reel
M: 4/4
K: Adorian
eaaa g2 ba|gede g2 gf|eaaa g2 ba|gedB BA (3Bcd|
eaaa g2 ba|gede ~g2 ga|~b3 a gbaf|gede ~g2 fg||
eAAA GABd|eAfA ~g2 fd|eAAA GA (3Bcd|(3efg dg BAAA|
eAAA GABd|eAfA g2 fd|eAAA GA (3Bcd|(3efg dB BAAA||

